X:1
T:10 - Chi vuol udir i miei sospiri
T:Luca Marenzio (1556 - 1599) 1º Libro di Madrigali a quattro voci (Venetia, 1592)
T:Jacopo Sannazaro
T:10 - Chi vuol udir i miei sospiri
T:© 2018 Ed. Marcos Mato
T:© 2018 Ed. Marcos Mato
T:© 2018 Ed. Marcos Mato
T:© 2018 Ed. Marcos Mato
T:© 2018 Ed. Marcos Mato
C:Luca Marenzio (1556 - 1599)
C:1º Libro di Madrigali a quattro voci (Venetia, 1592)
Z:Jacopo Sannazaro
Z:© 2018 Ed. Marcos Mato
%%score [ 1 2 3 4 ]
L:1/8
M:4/4
K:C
V:1 treble nm="Soprano" snm="Sop."
V:2 alto2 nm="Alto" snm="A."
V:3 alto transpose=-12 nm="Tenor" snm="T."
V:4 bass3 nm="Basso" snm="Bajo"
V:1
 A4 | [Eg]2 |[M:4/2] A16 | d12 ^c4 |"^#" ^c8 d4 d4- | d4 B4 g8- | g4 f4 e4 d4 | z4 d4 d8- | %8
w: ||Chi|vuol u-|dir i miei|_ sos- pi-|* ri\_in ri- me,|in ri-|
 d4 ^c2 B2 c8 | z4 d6 d2 A4 | c16 | c8 d8- | d4 c4 _B8 |"^b" _B8 A8- | A16 | ^G8 z4 A4 | %16
w: * * * me|don- ne mie|ca-|re\_e l'an-|* gos- cio-|so pian-||to e|
 c8 B4 e4- | e2 d2 d2 B2 d2 d2 c4 | B8 z8 | z16 | z4 B4 c8 | B4 e6 d2 d2 B2 | g2 g2 f4 e8 | z16 | %24
w: quan- ti pas-|* si tra la nott' e'l gior-|no,||e quan-|ti pas- si tra la|nott' e'l gior- no||
 z16 | z4 c4 d4 e4 | A2 B2 c2 d2 e2 f2 g4- | g2 fe ^f4 g8 | z16 | z8 d4 d4 | z8 d4 d2 d2 | %31
w: |spar- gend' in-|dar- no vo per tan- ti cam-|* * * * pi,||leg- ga,|leg- ga per|
 g2 g2 g3 f e3 d c3 B | A2 B3 A B3 G c3 B BA/G/ | A4 B4 z4 z2 G2- | G2 c4 c2 A8 | G4 c4 B4 A4 | %36
w: ques- te quer- ce\_et per li sas- *||* si, et|_ per li sas-|si, che n'è gia|
 G4 F4 E4 z2 g2 | f4 e4 d4 c4 | B2 d4 B4 G4 c2- | c2 BA B4 G4 c4 | B4 A4 G4 F4 | E4 z2 g2 f4 e4 | %42
w: pien' ho- mai, che|n'è gia pien' ho-|mai cias- cu- na val-|* * * * le, che|n'è gia pien' ho-|mai, che n'è gia|
 d4 c4 B2 B2 c4- | c4 B4 A8 | A4 d8 c4- | c4 B4 e4 e4 | d8 e4 c4 | A8 A8 | A16 |] %49
w: pien' ho- mai cias- cu-|* na val-|le, che n'è|_ gia pien' ho-|mai cias- cu-|na val-|le.|
V:2
 F4 | [G,c]2 |[M:4/2] z8 A8- | A8 A8 | A8 A8 | B8 B8 | c4 A8 A4 | _B2 A2 A6 GF G4 | A16 | %9
w: ||Chi|_ vuol|u- dir|i miei|sos- pi- ri\_in|ri- * * * * *|me|
 A6 A2 A4 F4- | F4 E2 D2 E8 | F8 z4 F4 | _B12 A4 | G4 F4 E8- | E4 D2 C2 D8 | E4 E4 F8 | %16
w: don- ne mie ca-||re e|l'an- gos-|cio- so pian-||to e quan-|
 E4 A6 G2 G2 E2 | G4 G4 F4 E4 | z16 | z8 z4 C4 | D4 E4 A,2 B,2 C2 D2 | E6 F2 G4 G4 | z4 F4 G4 A4 | %23
w: ti pas- si tra la|nott' e'l gior- no||spar-|gend' in- dar- no vo per|tan- ti cam- pi,|spar- gend' in-|
 D2 E2 F2 G2 A4 A4 | A,8 E8 | z4 A4 G4 E4 | F2 G2 A2 B2 c4 B4 | A8 G2 G2 E4 | F2 A4 ^G2 A8 | z16 | %30
w: dar- no vo per tan- ti|cam- pi,|spar- gend' in-|dar- no vo per tan- ti|cam- pi, per tan-|ti cam- * pi,||
 D4 D4 z4 G4 | G2 G2 c2 c2 c3 B A3 G | ^F2 G4 FE D2 E3 D G2- | G2 ^F2 G4 z4 z2 E2 | %34
w: leg- ga, leg-|ga per ques- te quer- ce\_et per li|sas- * * * * * * *|* * si, et|
 G4 =F2 E4 DC D4 | E4 z2 F4 E4 D2- | D2 C4 B,2 C4 z2 c2- | c2 B4 A4 G4 ^F2 | G4 G,4 G4 E4 | %39
w: per li sas- * * *|si, che n'è gia|_ pien' ho- mai, che|_ n'è gia pien' ho-|mai cias- cu- na|
 D8 E4 z2 F2- | F2 E4 D4 C4 B,2 | C4 z2 c4 B4 A2- | A2 G4 ^F2 G4 E4 | A4 G4 =F4 E4 | ^F4 F4 G4 E4 | %45
w: val- le, che|_ n'è gia pien' ho-|mai, che n'è gia|_ pien' ho- mai, che|n'è gia pien' ho-|mai cias- cu- na|
 D6 E=F G2 C2 c4- | c4 B4 z4 E4 | F4 F4 E8 | ^F16 |] %49
w: val- * * * * *|* le, cias-|cu- na val-|le.|
V:3
 F4 | [G,A]2 |[M:4/2] z8 F8- | F8 E8 | E8 D8 | D12 E4- | E4 D4 C4 F4 | F6 E2 D8 | E16 | %9
w: ||Chi|_ vuol|u- dir|i miei|_ sos- pi- ri\_in|ri- * *|me|
 z4 F6 F2 F4 | G16 | A8 z4 D4 | G12 F4 | E4 D8 C4- | C2 B,2 A,2 G,2 A,8 | B,8 z8 | z16 | z8 z4 C4 | %18
w: don- ne mie|ca-|re e|l'an- gos-|cio- so pian-||to||spar-|
 D4 E4 A,2 B,2 C2 D2 | E2 F2 G6"^#" ^FE F4 | G4 z2 G2 A8 | G4 C6 B,2 B,2 E2 | C2 E2 D4 C8 | %23
w: gend' in- dar- no vo per|tan- ti cam- * * *|pi, e quan-|ti sas- si, tra la|nott' e'l gior- no|
 z4 D4 F8 | E4 A6 G2 G2 E2 | G2 G2 F2 E2 z8 | z8 z4 B,4 | C4 D4 G,4 C2 E2 | D4 B,4 C2 D2 E2 D2 | %29
w: e per|li sas- si, tra la|nott' e'l gior- no|spar-|gend' in dar- no, spar-|gend' in dar- no vo per|
 C4 B,4 A,8 | B,16 | E4 E4 z8 | D4 D4 z8 | D4 D2 D2 G2 G2 G3 F | E3 D C6 B,2 A,4 | B,4 z4 z8 | %36
w: tan- ti cam-|pi,|leg- ga,|leg- ga,|leg- ga per ques- te quer- ce\_et|per li sas- * *|si,|
 z8 z4 E4 | D4 C4 B,4 A,4 | G,4 G4 E4 C4 | G,8 C8 | z16 | z4 E4 D4 C4 | B,4 A,4 G,4 G4- | %43
w: che|n'è gia pien' ho-|mai cias- cu- na|val- le,||che n'è gia|pien' ho- mai che|
 G2 F4 E4 D4 ^C2 | D8 z8 | z4 G4 E4 C4 | G,8 C2 E4 C2- | C2 A,4 D4 ^CB, C4 | D16 |] %49
w: _ n'è gia pien' ho-|mai|cias- cu- na|val- le, cias- cu-|* na val- * * *|le.|
V:4
 F,4 | [A,,D]2 |[M:4/2] z8 F,8- | F,8 A,8- | A,4 G,4 ^F,8 | G,4 G,8 E,4 | A,12 D,4 | D6 C2 _B,8 | %8
w: ||Chi|_ vuol|_ u- dir|i miei sos-|pi- ri\_in|ri- * *|
 A,16 | D6 D2 D8 | C16 | F,8 _B,8- | B,4 A,4 G,8 | G,8 A,6 G,2 | F,16 | E,8 z8 | z16 | z8 z4 A,4 | %18
w: me|don- ne mie|ca-|re\_e l'an-|* gos- cio-|so pian- *||to||spar-|
 G,4 E,4 F,2 G,2 A,2 B,2 | C4 B,4 A,8 | G,8 z8 | z16 | z8 z4 A,4 | _B,8 A,4 D4- | %24
w: gend' in- dar- no vo per|tan- ti cam-|pi,||e|quan- ti pas-|
 D2 C2 C2 A,2 C4 C4 | _B,4 A,4 z8 | z16 | z8 z4 C,4 | D,4 E,4 A,,2 B,,2 C,2 D,2 | %29
w: * si tra la nott' e'l|gior- no||spar-|gend' in dar- no vo per|
 E,2 F,2 G,6"^#" ^F,E, F,4 | G,16 | C,4 C,4 z8 | z8 G,4 G,4 | z4 G,4 G,2 G,2 C2 C2 | %34
w: tan- ti cam- * * *|pi,|leg- ga,|leg- ga,|leg- ga per ques- te|
 C3 B, A,3 G, F,8 | E,4 A,4 G,4 F,4 | E,4 D,4 C,8 | z16 | z16 | z8 z4 A,4 | G,4 F,4 E,4 D,4 | %41
w: quer- ce\_et per li sas-|si, che n'è gia|pien' ho- mai,|||che|n'è gia pien' ho-|
 C,4 C,4 D,8- | D,8 E,8 | F,4 G,4 A,8 | z4 D4 B,4 C4 | G,8 C,8 | z8 z4 A,4 | F,4 D,4 A,,8 | D,16 |] %49
w: mai, che n'è|_ gia|pien' ho- mai|cias- cu- na|val- le,|cias-|cu- na val-|le.|

